!!!OTL: Zaldotemarsch (3-5), S. 14f
!!!id: K1142
**kern
*clefG2
*k[]
*C:
{16c
=1
16c
4g
8g
8g
=2
4a
4g
=3
8.e
16e
8d
8e
=4
4g
4f}
=5
{4g
8g
8g
=6
4b
4a
=7
4f
8e
8f
=8
4a
8g}
=9
{8cc
=10
4cc
8cc
8cc
=11
4cc
8cc
8c
=12
4c
8c
8cc
=13
4cc
8cc
8c
=14
4c
8c}
=15
{8g
=16
4cc
8b
8a
=17
8.a
16g
8g
8a
=18
4g
8f
8g
=19
8.f
16e
8e}
=20
{8g
=21
4cc
8b
8a
=22
8.a
16g
8g
8a
=23
8.g
16f
8f
8a
=24
8.g
16g
8a
8b
=25
4cc}
4r
==
*-
!!!minrhy: 16
!!!meters: 2/4 ]  ZZ[5
!!!cut: Zaldotemarsch (3-5), S. 14f
!!!reg: Luxemburg
!!!trd: KINTZELE, Guillaume: An der Ucht, Bd. 3 Luxemburg 1928
!!!rhy1:   X__X_X_  X__X__  X_.XX_X_  X__X__
!!!rhy2: X__X_X_  X__X__  X__X_X_  X__X_
!!!key: K1142  16  C 2/4 ]  ZZ[5
!!!mod: HEPTATONIK IONISCH]  AMBITUS[8
!!!kad: 4513+1
!!!akz: 5635_5746_+1+11+11_+1654_+1655+1_
!!!fot: 'a__as"b__c__cw_
!!!for: 'a__b__c__d__e__
!!!fok: 'Vd_~__\__^d_~a_
!! PHRAS[GEMISCHTTAKTIG]
!!!fkt: Kriegs-, Soldatenlied, Liebe
!!!bem: in der Quelle mit einer 2. Stimme versehen
!! KINTZELE
!! PR[13] 2K[13] 2G[15] 3K[4] 3G[1] 4A[3] 4Ü[0] 5A[0] 6K[0] 6G[1]
!! 7K[1] 7G[0] 8A[0] MEHR[0] SI[38] ABS[79] SR[28] SP[10]
!! ST[20] 2k[14] 2g[25] 3k[5] 3g[4] 4d[1] 4ü[0] 5d[0] 6k[0] 6g[0]
!! 7k[0] 7g[0] 8d[0] mehr[0] si[49] dm[-11] sr[39] sp[10]
!! 1F[14] 2F[51] 3F[11] 4F[8] LF[0] 2P[6] 3P[10] 4P[0] TRI[0] DF[6] AB[80]
!! TF[0] U3K[0] U3[0] U4[0] U4Ü[0] U5[1] U6K[0] U6[0] U7K[0] U7[3]
!! N1[11] N2K[3] N2[19] N3K[0] N3[25] N4[9] N4Ü[4] N5[15] N6K[1] N6[8]
!!!n7k: 0] N7[3] O1[0] O2K[0] O2[0] O3K[0] O3[0] HÖ[0
